neru-light-classic/22x22/actions/view-fullscreen-symbolic.svg

<?xml version="1.0" encoding="UTF-8" standalone="no"?>
<svg
   xmlns:dc="http://purl.org/dc/elements/1.1/"
   xmlns:cc="http://creativecommons.org/ns#"
   xmlns:rdf="http://www.w3.org/1999/02/22-rdf-syntax-ns#"
   xmlns:svg="http://www.w3.org/2000/svg"
   xmlns="http://www.w3.org/2000/svg"
   xmlns:sodipodi="http://sodipodi.sourceforge.net/DTD/sodipodi-0.dtd"
   xmlns:inkscape="http://www.inkscape.org/namespaces/inkscape"
   width="22"
   height="22"
   viewBox="0 0 22 22"
   version="1.1"
   id="svg7"
   sodipodi:docname="view-fullscreen-symbolic.svg"
   inkscape:version="0.92.1 r">
  <metadata
     id="metadata11">
    <rdf:RDF>
      <cc:Work
         rdf:about="">
        <dc:format>image/svg+xml</dc:format>
        <dc:type
           rdf:resource="http://purl.org/dc/dcmitype/StillImage" />
        <dc:title></dc:title>
      </cc:Work>
    </rdf:RDF>
  </metadata>
  <sodipodi:namedview
     pagecolor="#ffffff"
     bordercolor="#666666"
     borderopacity="1"
     objecttolerance="10"
     gridtolerance="10"
     guidetolerance="10"
     inkscape:pageopacity="0"
     inkscape:pageshadow="2"
     inkscape:window-width="769"
     inkscape:window-height="480"
     id="namedview9"
     showgrid="false"
     inkscape:zoom="10.727273"
     inkscape:cx="11"
     inkscape:cy="11"
     inkscape:window-x="0"
     inkscape:window-y="0"
     inkscape:window-maximized="0"
     inkscape:current-layer="svg7" />
  <defs
     id="defs3">
    <style
       type="text/css"
       id="current-color-scheme">
   .ColorScheme-Text { color:#1e333d; } .ColorScheme-Highlight { color:#3fb7ff; }
  </style>
  </defs>
  <path
     style="fill:currentColor;opacity:1"
     class="ColorScheme-Text"
     transform="translate(3 3)"
     d="M 2 2.0039062 C 1 2.0039062 1 3.0039062 1 3.0039062 L 1 7.0039062 L 3 7.0039062 L 3 4.0039062 L 6 4.0039062 L 6 2.0039062 L 2 2.0039062 z M 10 2.0039062 L 10 4.0039062 L 13 4.0039062 L 13 7.0039062 L 15 7.0039062 L 15 3.0039062 C 15 2.0039062 14 2.0039062 14 2.0039062 L 10 2.0039062 z M 1 9.0039062 L 1 13.003906 C 1 14.003906 2 14.003906 2 14.003906 L 6 14.003906 L 6 12.003906 L 3 12.003906 L 3 9.0039062 L 1 9.0039062 z M 13 9.0039062 L 13 12.003906 L 10 12.003906 L 10 14.003906 L 14 14.003906 C 14 14.003906 15 14.003906 15 13.003906 L 15 9.0039062 L 13 9.0039062 z"
     id="path5" />
</svg>

<svg xmlns="http://www.w3.org/2000/svg" width="22" height="22" version="1.1" id="svg7"><defs id="defs3"><style type="text/css" id="current-color-scheme"></style></defs><path transform="translate(3 3)" d="M2 2.004c-1 0-1 1-1 1v4h2v-3h3v-2H2zm8 0v2h3v3h2v-4c0-1-1-1-1-1h-4zm-9 7v4c0 1 1 1 1 1h4v-2H3v-3H1zm12 0v3h-3v2h4s1 0 1-1v-4h-2z" id="path5" fill="currentColor" opacity="1" color="#1e333d"/></svg>
